X: 1
T: The Silver Spire
R: reel
M: 4/4
L: 1/8
K: Dmaj
S: Richard Tait
|:FE|D2FE DFAc|dcde fdAF|GABG FGAF|GFED CEA,C|
D2FE DFAc|dcde fdAF|G2BG F2AF|EA,CE D2:|
|:CB,|A,B,CD EFGE|FDEF GABc|dBBA Bcde|f2gf e2 (3ABc|
d2fd cdec|BABc dAFD|G2BG F2AF|EA,CE D2:|
